; HEADER_BLOCK_START
; generated by OrcaSlicer 1.6.6 on 2023-09-09 at 08:58:44
; total layer number: 1
; HEADER_BLOCK_END

; THUMBNAIL_BLOCK_START
; THUMBNAIL_BLOCK_END

; external perimeters extrusion width = 0.42mm
; perimeters extrusion width = 0.45mm
; infill extrusion width = 0.45mm
; solid infill extrusion width = 0.42mm
; top infill extrusion width = 0.42mm
; support material extrusion width = 0.42mm
; first layer extrusion width = 0.50mm

; EXECUTABLE_BLOCK_START
EXCLUDE_OBJECT_DEFINE NAME=首层测试.STL_id_0_copy_0 CENTER=75,75 POLYGON=[[25,25],[125,25],[125,125],[25,125],[25,25]]
M73 P0 R5
;TYPE:Custom
BED_MESH_PROFILE LOAD='default'

G28 ; home all axes
 
G92 E0 ; reset extruder
 
G1 Z1.0 F3000 ; move z up little to prevent scratching of surface

M190 S60 ; wait for bed temp

Z_TILT_ADJUST

G28 ; home all axes

M109 S200 ; wait for extruder temp
 
G1 X10 Y20 Z0.3 F5000.0 ; move to start-line position
 
G1 X10 Y130.0 Z0.2 F1500.0 E10 ; draw 1st line
 
G1 X10 Y130.0 Z0.3 F5000.0 ; move to side a little
 
G1 X10 Y20 Z0.3 F1500.0 E20 ; draw 2nd line
 
G92 E0 ; reset extruder
 
M73 P1 R4
G1 Z1.0 F3000 ; move z up little to prevent scratching of surface
G90
G21
M83 ; use relative distances for extrusion
; filament start gcode
M106 S0
;LAYER_CHANGE
;Z:0.2
;HEIGHT:0.2
;BEFORE_LAYER_CHANGE
;0.2
G92 E0

G1 E-1 F4800
;AFTER_LAYER_CHANGE
;0.2
SET_VELOCITY_LIMIT ACCEL=500 ACCEL_TO_DECEL=250
; printing object 首层测试.STL id:0 copy 0
EXCLUDE_OBJECT_START NAME=首层测试.STL_id_0_copy_0
M73 P3 R4
G1 X123.636 Y123.636 F21000
G1 Z.2
G1 E1 F4800
;TYPE:Inner wall
;WIDTH:0.5
G1 F3000
G1 X26.364 Y123.636 E3.51209
G1 X26.364 Y26.364 E3.51209
G1 X123.636 Y26.364 E3.51209
M73 P4 R4
G1 X123.636 Y123.596 E3.51065
G1 X124.093 Y124.093 F21000
M73 P5 R4
G1 F3000
M73 P6 R4
G1 X25.907 Y124.093 E3.5451
G1 X25.907 Y25.907 E3.5451
G1 X124.093 Y25.907 E3.5451
G1 X124.093 Y124.053 E3.54365
M73 P7 R4
G1 X124.55 Y124.55 F21000
;TYPE:Outer wall
M73 P8 R4
G1 F3000
G1 X25.45 Y124.55 E3.57811
G1 X25.45 Y25.45 E3.57811
G1 X124.55 Y25.45 E3.57811
M73 P9 R4
G1 X124.55 Y124.51 E3.57666
M73 P10 R4
G1 E-.7 F4800
;WIPE_START
G1 F3000
M73 P11 R4
G1 X123.55 Y124.51 E-.285
;WIPE_END
G1 E-.015 F4800
G1 X122.526 Y26.547 F21000
G1 E1 F4800
;TYPE:Bottom surface
;WIDTH:0.501483
G1 F6000
G1 X123.247 Y27.268 E.03696
G1 X123.247 Y27.917 E.02349
G1 X122.083 Y26.753 E.05964
G1 X121.435 Y26.753 E.02349
G1 X123.247 Y28.565 E.09286
G1 X123.247 Y29.214 E.02349
G1 X120.786 Y26.753 E.12608
M73 P12 R4
G1 X120.138 Y26.753 E.02349
G1 X123.247 Y29.862 E.15931
G1 X123.247 Y30.511 E.02349
G1 X119.489 Y26.753 E.19253
G1 X118.841 Y26.753 E.02349
G1 X123.247 Y31.159 E.22575
G1 X123.247 Y31.808 E.02349
G1 X118.192 Y26.753 E.25897
G1 X117.544 Y26.753 E.02349
G1 X123.247 Y32.456 E.29219
G1 X123.247 Y33.105 E.02349
G1 X116.895 Y26.753 E.32541
G1 X116.247 Y26.753 E.02349
G1 X123.247 Y33.753 E.35863
G1 X123.247 Y34.402 E.02349
G1 X115.598 Y26.753 E.39185
G1 X114.95 Y26.753 E.02349
G1 X123.247 Y35.05 E.42508
G1 X123.247 Y35.699 E.02349
G1 X114.301 Y26.753 E.4583
G1 X113.653 Y26.753 E.02349
G1 X123.247 Y36.347 E.49152
G1 X123.247 Y36.996 E.02349
G1 X113.004 Y26.753 E.52474
M73 P13 R4
G1 X112.355 Y26.753 E.02349
G1 X123.247 Y37.645 E.55796
G1 X123.247 Y38.293 E.02349
G1 X111.707 Y26.753 E.59118
G1 X111.058 Y26.753 E.02349
G1 X123.247 Y38.942 E.6244
G1 X123.247 Y39.59 E.02349
G1 X110.41 Y26.753 E.65762
G1 X109.761 Y26.753 E.02349
G1 X123.247 Y40.239 E.69084
G1 X123.247 Y40.887 E.02349
G1 X109.113 Y26.753 E.72407
G1 X108.464 Y26.753 E.02349
G1 X123.247 Y41.536 E.75729
G1 X123.247 Y42.184 E.02349
G1 X107.816 Y26.753 E.79051
M73 P14 R4
G1 X107.167 Y26.753 E.02349
G1 X123.247 Y42.833 E.82373
G1 X123.247 Y43.481 E.02349
G1 X106.519 Y26.753 E.85695
G1 X105.87 Y26.753 E.02349
G1 X123.247 Y44.13 E.89017
G1 X123.247 Y44.778 E.02349
G1 X105.222 Y26.753 E.92339
G1 X104.573 Y26.753 E.02349
G1 X123.247 Y45.427 E.95661
G1 X123.247 Y46.075 E.02349
G1 X103.925 Y26.753 E.98984
G1 X103.276 Y26.753 E.02349
G1 X123.247 Y46.724 E1.02306
M73 P15 R4
G1 X123.247 Y47.372 E.02349
G1 X102.628 Y26.753 E1.05628
G1 X101.979 Y26.753 E.02349
G1 X123.247 Y48.021 E1.0895
G1 X123.247 Y48.669 E.02349
G1 X101.331 Y26.753 E1.12272
G1 X100.682 Y26.753 E.02349
G1 X123.247 Y49.318 E1.15594
G1 X123.247 Y49.966 E.02349
G1 X100.034 Y26.753 E1.18916
G1 X99.385 Y26.753 E.02349
G1 X123.247 Y50.615 E1.22238
M73 P16 R4
G1 X123.247 Y51.263 E.02349
G1 X98.737 Y26.753 E1.25561
G1 X98.088 Y26.753 E.02349
G1 X123.247 Y51.912 E1.28883
G1 X123.247 Y52.56 E.02349
G1 X97.44 Y26.753 E1.32205
G1 X96.791 Y26.753 E.02349
G1 X123.247 Y53.209 E1.35527
G1 X123.247 Y53.857 E.02349
G1 X96.143 Y26.753 E1.38849
M73 P17 R4
G1 X95.494 Y26.753 E.02349
G1 X123.247 Y54.506 E1.42171
G1 X123.247 Y55.154 E.02349
G1 X94.846 Y26.753 E1.45493
G1 X94.197 Y26.753 E.02349
G1 X123.247 Y55.803 E1.48815
G1 X123.247 Y56.451 E.02349
G1 X93.549 Y26.753 E1.52138
G1 X92.9 Y26.753 E.02349
G1 X123.247 Y57.1 E1.5546
M73 P18 R4
G1 X123.247 Y57.748 E.02349
G1 X92.252 Y26.753 E1.58782
G1 X91.603 Y26.753 E.02349
G1 X123.247 Y58.397 E1.62104
G1 X123.247 Y59.045 E.02349
G1 X90.955 Y26.753 E1.65426
G1 X90.306 Y26.753 E.02349
G1 X123.247 Y59.694 E1.68748
G1 X123.247 Y60.342 E.02349
G1 X89.658 Y26.753 E1.7207
M73 P19 R4
G1 X89.009 Y26.753 E.02349
G1 X123.247 Y60.991 E1.75392
G1 X123.247 Y61.639 E.02349
G1 X88.361 Y26.753 E1.78715
G1 X87.712 Y26.753 E.02349
G1 X123.247 Y62.288 E1.82037
G1 X123.247 Y62.936 E.02349
G1 X87.064 Y26.753 E1.85359
M73 P20 R4
G1 X86.415 Y26.753 E.02349
G1 X123.247 Y63.585 E1.88681
G1 X123.247 Y64.233 E.02349
G1 X85.767 Y26.753 E1.92003
G1 X85.118 Y26.753 E.02349
G1 X123.247 Y64.882 E1.95325
G1 X123.247 Y65.53 E.02349
G1 X84.47 Y26.753 E1.98647
M73 P21 R4
G1 X83.821 Y26.753 E.02349
G1 X123.247 Y66.179 E2.01969
M73 P21 R3
G1 X123.247 Y66.827 E.02349
G1 X83.173 Y26.753 E2.05292
G1 X82.524 Y26.753 E.02349
G1 X123.247 Y67.476 E2.08614
G1 X123.247 Y68.124 E.02349
G1 X81.876 Y26.753 E2.11936
M73 P22 R3
G1 X81.227 Y26.753 E.02349
G1 X123.247 Y68.773 E2.15258
G1 X123.247 Y69.421 E.02349
G1 X80.579 Y26.753 E2.1858
G1 X79.93 Y26.753 E.02349
G1 X123.247 Y70.07 E2.21902
G1 X123.247 Y70.718 E.02349
G1 X79.282 Y26.753 E2.25224
M73 P23 R3
G1 X78.633 Y26.753 E.02349
G1 X123.247 Y71.367 E2.28546
G1 X123.247 Y72.015 E.02349
G1 X77.985 Y26.753 E2.31868
G1 X77.336 Y26.753 E.02349
G1 X123.247 Y72.664 E2.35191
G1 X123.247 Y73.312 E.02349
M73 P24 R3
G1 X76.688 Y26.753 E2.38513
G1 X76.039 Y26.753 E.02349
G1 X123.247 Y73.961 E2.41835
G1 X123.247 Y74.609 E.02349
G1 X75.391 Y26.753 E2.45157
G1 X74.742 Y26.753 E.02349
G1 X123.247 Y75.258 E2.48479
M73 P25 R3
G1 X123.247 Y75.906 E.02349
G1 X74.094 Y26.753 E2.51801
G1 X73.445 Y26.753 E.02349
G1 X123.247 Y76.555 E2.55123
G1 X123.247 Y77.203 E.02349
G1 X72.797 Y26.753 E2.58445
M73 P26 R3
G1 X72.148 Y26.753 E.02349
G1 X123.247 Y77.852 E2.61768
G1 X123.247 Y78.5 E.02349
G1 X71.5 Y26.753 E2.6509
G1 X70.851 Y26.753 E.02349
G1 X123.247 Y79.149 E2.68412
G1 X123.247 Y79.797 E.02349
G1 X70.203 Y26.753 E2.71734
M73 P27 R3
G1 X69.554 Y26.753 E.02349
G1 X123.247 Y80.446 E2.75056
G1 X123.247 Y81.094 E.02349
G1 X68.906 Y26.753 E2.78378
G1 X68.257 Y26.753 E.02349
G1 X123.247 Y81.743 E2.817
M73 P28 R3
G1 X123.247 Y82.391 E.02349
G1 X67.609 Y26.753 E2.85022
G1 X66.96 Y26.753 E.02349
G1 X123.247 Y83.04 E2.88345
G1 X123.247 Y83.688 E.02349
G1 X66.312 Y26.753 E2.91667
M73 P29 R3
G1 X65.663 Y26.753 E.02349
G1 X123.247 Y84.337 E2.94989
G1 X123.247 Y84.985 E.02349
G1 X65.015 Y26.753 E2.98311
G1 X64.366 Y26.753 E.02349
G1 X123.247 Y85.634 E3.01633
M73 P30 R3
G1 X123.247 Y86.282 E.02349
G1 X63.718 Y26.753 E3.04955
G1 X63.069 Y26.753 E.02349
G1 X123.247 Y86.931 E3.08277
G1 X123.247 Y87.579 E.02349
G1 X62.421 Y26.753 E3.11599
M73 P31 R3
G1 X61.772 Y26.753 E.02349
G1 X123.247 Y88.228 E3.14922
G1 X123.247 Y88.876 E.02349
G1 X61.124 Y26.753 E3.18244
G1 X60.475 Y26.753 E.02349
G1 X123.247 Y89.525 E3.21566
M73 P32 R3
G1 X123.247 Y90.173 E.02349
G1 X59.827 Y26.753 E3.24888
G1 X59.178 Y26.753 E.02349
G1 X123.247 Y90.822 E3.2821
M73 P33 R3
G1 X123.247 Y91.471 E.02349
G1 X58.529 Y26.753 E3.31532
G1 X57.881 Y26.753 E.02349
G1 X123.247 Y92.119 E3.34854
G1 X123.247 Y92.768 E.02349
G1 X57.232 Y26.753 E3.38176
M73 P34 R3
G1 X56.584 Y26.753 E.02349
G1 X123.247 Y93.416 E3.41499
G1 X123.247 Y94.065 E.02349
G1 X55.935 Y26.753 E3.44821
G1 X55.287 Y26.753 E.02349
G1 X123.247 Y94.713 E3.48143
M73 P35 R3
G1 X123.247 Y95.362 E.02349
G1 X54.638 Y26.753 E3.51465
G1 X53.99 Y26.753 E.02349
G1 X123.247 Y96.01 E3.54787
M73 P36 R3
G1 X123.247 Y96.659 E.02349
G1 X53.341 Y26.753 E3.58109
G1 X52.693 Y26.753 E.02349
G1 X123.247 Y97.307 E3.61431
G1 X123.247 Y97.956 E.02349
G1 X52.044 Y26.753 E3.64753
M73 P37 R3
G1 X51.396 Y26.753 E.02349
G1 X123.247 Y98.604 E3.68075
G1 X123.247 Y99.253 E.02349
G1 X50.747 Y26.753 E3.71398
M73 P38 R3
G1 X50.099 Y26.753 E.02349
G1 X123.247 Y99.901 E3.7472
G1 X123.247 Y100.55 E.02349
G1 X49.45 Y26.753 E3.78042
G1 X48.802 Y26.753 E.02349
G1 X123.247 Y101.198 E3.81364
M73 P39 R3
G1 X123.247 Y101.847 E.02349
G1 X48.153 Y26.753 E3.84686
G1 X47.505 Y26.753 E.02349
G1 X123.247 Y102.495 E3.88008
M73 P40 R3
G1 X123.247 Y103.144 E.02349
G1 X46.856 Y26.753 E3.9133
G1 X46.208 Y26.753 E.02349
G1 X123.247 Y103.792 E3.94652
G1 X123.247 Y104.441 E.02349
M73 P40 R2
G1 X45.559 Y26.753 E3.97975
M73 P41 R2
G1 X44.911 Y26.753 E.02349
G1 X123.247 Y105.089 E4.01297
G1 X123.247 Y105.738 E.02349
G1 X44.262 Y26.753 E4.04619
M73 P42 R2
G1 X43.614 Y26.753 E.02349
G1 X123.247 Y106.386 E4.07941
G1 X123.247 Y107.035 E.02349
G1 X42.965 Y26.753 E4.11263
M73 P43 R2
G1 X42.317 Y26.753 E.02349
G1 X123.247 Y107.683 E4.14585
G1 X123.247 Y108.332 E.02349
G1 X41.668 Y26.753 E4.17907
M73 P44 R2
G1 X41.02 Y26.753 E.02349
G1 X123.247 Y108.98 E4.21229
G1 X123.247 Y109.629 E.02349
G1 X40.371 Y26.753 E4.24552
G1 X39.723 Y26.753 E.02349
G1 X123.247 Y110.277 E4.27874
M73 P45 R2
G1 X123.247 Y110.926 E.02349
G1 X39.074 Y26.753 E4.31196
G1 X38.426 Y26.753 E.02349
G1 X123.247 Y111.574 E4.34518
M73 P46 R2
G1 X123.247 Y112.223 E.02349
G1 X37.777 Y26.753 E4.3784
G1 X37.129 Y26.753 E.02349
G1 X123.247 Y112.871 E4.41162
M73 P47 R2
G1 X123.247 Y113.52 E.02349
G1 X36.48 Y26.753 E4.44484
G1 X35.832 Y26.753 E.02349
G1 X123.247 Y114.168 E4.47806
M73 P48 R2
G1 X123.247 Y114.817 E.02349
G1 X35.183 Y26.753 E4.51129
G1 X34.535 Y26.753 E.02349
G1 X123.247 Y115.465 E4.54451
M73 P49 R2
G1 X123.247 Y116.114 E.02349
G1 X33.886 Y26.753 E4.57773
G1 X33.238 Y26.753 E.02349
G1 X123.247 Y116.762 E4.61095
M73 P50 R2
G1 X123.247 Y117.411 E.02349
G1 X32.589 Y26.753 E4.64417
G1 X31.941 Y26.753 E.02349
G1 X123.247 Y118.059 E4.67739
M73 P51 R2
G1 X123.247 Y118.708 E.02349
G1 X31.292 Y26.753 E4.71061
G1 X30.644 Y26.753 E.02349
G1 X123.247 Y119.356 E4.74383
M73 P52 R2
G1 X123.247 Y120.005 E.02349
G1 X29.995 Y26.753 E4.77706
G1 X29.347 Y26.753 E.02349
G1 X123.247 Y120.653 E4.81028
M73 P53 R2
G1 X123.247 Y121.302 E.02349
G1 X28.698 Y26.753 E4.8435
G1 X28.05 Y26.753 E.02349
G1 X123.247 Y121.95 E4.87672
M73 P54 R2
G1 X123.247 Y122.599 E.02349
G1 X27.401 Y26.753 E4.90994
G1 X26.753 Y26.753 E.02349
G1 X123.247 Y123.247 E4.94316
M73 P55 R2
G1 X122.599 Y123.247 E.02349
G1 X26.753 Y27.401 E4.90994
G1 X26.753 Y28.05 E.02349
G1 X121.95 Y123.247 E4.87672
M73 P56 R2
G1 X121.302 Y123.247 E.02349
G1 X26.753 Y28.698 E4.8435
G1 X26.753 Y29.347 E.02349
G1 X120.653 Y123.247 E4.81028
M73 P57 R2
G1 X120.005 Y123.247 E.02349
G1 X26.753 Y29.995 E4.77706
G1 X26.753 Y30.644 E.02349
G1 X119.356 Y123.247 E4.74384
M73 P58 R2
G1 X118.708 Y123.247 E.02349
G1 X26.753 Y31.292 E4.71062
G1 X26.753 Y31.941 E.02349
G1 X118.059 Y123.247 E4.6774
M73 P59 R2
G1 X117.411 Y123.247 E.02349
G1 X26.753 Y32.589 E4.64417
G1 X26.753 Y33.238 E.02349
G1 X116.762 Y123.247 E4.61095
M73 P60 R2
G1 X116.114 Y123.247 E.02349
G1 X26.753 Y33.886 E4.57773
G1 X26.753 Y34.535 E.02349
G1 X115.465 Y123.247 E4.54451
M73 P61 R1
G1 X114.817 Y123.247 E.02349
G1 X26.753 Y35.183 E4.51129
G1 X26.753 Y35.832 E.02349
G1 X114.168 Y123.247 E4.47807
M73 P62 R1
G1 X113.52 Y123.247 E.02349
G1 X26.753 Y36.48 E4.44485
G1 X26.753 Y37.129 E.02349
G1 X112.871 Y123.247 E4.41163
M73 P63 R1
G1 X112.223 Y123.247 E.02349
G1 X26.753 Y37.777 E4.3784
G1 X26.753 Y38.426 E.02349
G1 X111.574 Y123.247 E4.34518
G1 X110.926 Y123.247 E.02349
M73 P64 R1
G1 X26.753 Y39.074 E4.31196
G1 X26.753 Y39.723 E.02349
G1 X110.277 Y123.247 E4.27874
G1 X109.629 Y123.247 E.02349
G1 X26.753 Y40.371 E4.24552
M73 P65 R1
G1 X26.753 Y41.02 E.02349
G1 X108.98 Y123.247 E4.2123
G1 X108.332 Y123.247 E.02349
G1 X26.753 Y41.668 E4.17908
M73 P66 R1
G1 X26.753 Y42.317 E.02349
G1 X107.683 Y123.247 E4.14586
G1 X107.035 Y123.247 E.02349
G1 X26.753 Y42.965 E4.11263
M73 P67 R1
G1 X26.753 Y43.614 E.02349
G1 X106.386 Y123.247 E4.07941
G1 X105.738 Y123.247 E.02349
G1 X26.753 Y44.262 E4.04619
M73 P68 R1
G1 X26.753 Y44.911 E.02349
G1 X105.089 Y123.247 E4.01297
G1 X104.441 Y123.247 E.02349
G1 X26.753 Y45.559 E3.97975
G1 X26.753 Y46.208 E.02349
G1 X103.792 Y123.247 E3.94653
M73 P69 R1
G1 X103.144 Y123.247 E.02349
G1 X26.753 Y46.856 E3.91331
G1 X26.753 Y47.505 E.02349
G1 X102.495 Y123.247 E3.88009
M73 P70 R1
G1 X101.847 Y123.247 E.02349
G1 X26.753 Y48.153 E3.84686
G1 X26.753 Y48.802 E.02349
G1 X101.198 Y123.247 E3.81364
M73 P71 R1
G1 X100.55 Y123.247 E.02349
G1 X26.753 Y49.45 E3.78042
G1 X26.753 Y50.099 E.02349
G1 X99.901 Y123.247 E3.7472
G1 X99.253 Y123.247 E.02349
G1 X26.753 Y50.747 E3.71398
M73 P72 R1
G1 X26.753 Y51.396 E.02349
G1 X98.604 Y123.247 E3.68076
G1 X97.956 Y123.247 E.02349
G1 X26.753 Y52.044 E3.64754
M73 P73 R1
G1 X26.753 Y52.693 E.02349
G1 X97.307 Y123.247 E3.61432
G1 X96.659 Y123.247 E.02349
G1 X26.753 Y53.341 E3.58109
G1 X26.753 Y53.99 E.02349
G1 X96.01 Y123.247 E3.54787
M73 P74 R1
G1 X95.362 Y123.247 E.02349
G1 X26.753 Y54.638 E3.51465
G1 X26.753 Y55.287 E.02349
G1 X94.713 Y123.247 E3.48143
M73 P75 R1
G1 X94.065 Y123.247 E.02349
G1 X26.753 Y55.935 E3.44821
G1 X26.753 Y56.584 E.02349
G1 X93.416 Y123.247 E3.41499
G1 X92.768 Y123.247 E.02349
G1 X26.753 Y57.232 E3.38177
M73 P76 R1
G1 X26.753 Y57.881 E.02349
G1 X92.119 Y123.247 E3.34855
G1 X91.471 Y123.247 E.02349
G1 X26.753 Y58.529 E3.31533
G1 X26.753 Y59.178 E.02349
G1 X90.822 Y123.247 E3.2821
M73 P77 R1
G1 X90.174 Y123.247 E.02349
G1 X26.753 Y59.826 E3.24888
G1 X26.753 Y60.475 E.02349
G1 X89.525 Y123.247 E3.21566
M73 P78 R1
G1 X88.877 Y123.247 E.02349
G1 X26.753 Y61.123 E3.18244
G1 X26.753 Y61.772 E.02349
G1 X88.228 Y123.247 E3.14922
G1 X87.58 Y123.247 E.02349
G1 X26.753 Y62.42 E3.116
M73 P79 R1
G1 X26.753 Y63.069 E.02349
G1 X86.931 Y123.247 E3.08278
G1 X86.283 Y123.247 E.02349
G1 X26.753 Y63.717 E3.04956
G1 X26.753 Y64.366 E.02349
G1 X85.634 Y123.247 E3.01633
M73 P80 R1
G1 X84.986 Y123.247 E.02349
G1 X26.753 Y65.014 E2.98311
M73 P80 R0
G1 X26.753 Y65.663 E.02349
G1 X84.337 Y123.247 E2.94989
G1 X83.689 Y123.247 E.02349
G1 X26.753 Y66.311 E2.91667
M73 P81 R0
G1 X26.753 Y66.96 E.02349
G1 X83.04 Y123.247 E2.88345
G1 X82.391 Y123.247 E.02349
G1 X26.753 Y67.609 E2.85023
G1 X26.753 Y68.257 E.02349
G1 X81.743 Y123.247 E2.81701
M73 P82 R0
G1 X81.094 Y123.247 E.02349
G1 X26.753 Y68.906 E2.78379
G1 X26.753 Y69.554 E.02349
G1 X80.446 Y123.247 E2.75056
G1 X79.797 Y123.247 E.02349
G1 X26.753 Y70.203 E2.71734
M73 P83 R0
G1 X26.753 Y70.851 E.02349
G1 X79.149 Y123.247 E2.68412
G1 X78.5 Y123.247 E.02349
G1 X26.753 Y71.5 E2.6509
G1 X26.753 Y72.148 E.02349
G1 X77.852 Y123.247 E2.61768
M73 P84 R0
G1 X77.203 Y123.247 E.02349
G1 X26.753 Y72.797 E2.58446
G1 X26.753 Y73.445 E.02349
G1 X76.555 Y123.247 E2.55124
G1 X75.906 Y123.247 E.02349
G1 X26.753 Y74.094 E2.51802
M73 P85 R0
G1 X26.753 Y74.742 E.02349
G1 X75.258 Y123.247 E2.48479
G1 X74.609 Y123.247 E.02349
G1 X26.753 Y75.391 E2.45157
G1 X26.753 Y76.039 E.02349
G1 X73.961 Y123.247 E2.41835
G1 X73.312 Y123.247 E.02349
G1 X26.753 Y76.688 E2.38513
M73 P86 R0
G1 X26.753 Y77.336 E.02349
G1 X72.664 Y123.247 E2.35191
G1 X72.015 Y123.247 E.02349
G1 X26.753 Y77.985 E2.31869
G1 X26.753 Y78.633 E.02349
G1 X71.367 Y123.247 E2.28547
M73 P87 R0
G1 X70.718 Y123.247 E.02349
G1 X26.753 Y79.282 E2.25225
